public/img/icons/sprite/treble_clef.svg

<?xml version="1.0" encoding="UTF-8" standalone="no"?>
<!-- Created with Inkscape (http://www.inkscape.org/) -->
<svg
   xmlns:dc="http://purl.org/dc/elements/1.1/"
   xmlns:cc="http://creativecommons.org/ns#"
   xmlns:rdf="http://www.w3.org/1999/02/22-rdf-syntax-ns#"
   xmlns:svg="http://www.w3.org/2000/svg"
   xmlns="http://www.w3.org/2000/svg"
   xmlns:sodipodi="http://sodipodi.sourceforge.net/DTD/sodipodi-0.dtd"
   xmlns:inkscape="http://www.inkscape.org/namespaces/inkscape"
   version="1.0"
   width="810"
   height="1200"
   id="svg1894"
   sodipodi:version="0.32"
   inkscape:version="0.46"
   sodipodi:docname="Treble_clef_with_ref.svg"
   inkscape:output_extension="org.inkscape.output.svg.inkscape">
  <metadata
     id="metadata2601">
    <rdf:RDF>
      <cc:Work
         rdf:about="">
        <dc:format>image/svg+xml</dc:format>
        <dc:type
           rdf:resource="http://purl.org/dc/dcmitype/StillImage" />
      </cc:Work>
    </rdf:RDF>
  </metadata>
  <sodipodi:namedview
     inkscape:window-height="890"
     inkscape:window-width="1371"
     inkscape:pageshadow="2"
     inkscape:pageopacity="0.0"
     guidetolerance="10.0"
     gridtolerance="10.0"
     objecttolerance="10.0"
     borderopacity="1.0"
     bordercolor="#666666"
     pagecolor="#ffffff"
     id="base"
     showgrid="false"
     inkscape:zoom="0.76666666"
     inkscape:cx="598.03434"
     inkscape:cy="600"
     inkscape:window-x="212"
     inkscape:window-y="78"
     inkscape:current-layer="layer3" />
  <defs
     id="defs1896">
    <inkscape:perspective
       sodipodi:type="inkscape:persp3d"
       inkscape:vp_x="0 : 600 : 1"
       inkscape:vp_y="0 : 1000 : 0"
       inkscape:vp_z="810 : 600 : 1"
       inkscape:persp3d-origin="405 : 400 : 1"
       id="perspective2603" />
  </defs>
  <g
     inkscape:groupmode="layer"
     id="layer1"
     inkscape:label="staff"
     sodipodi:insensitive="true">
    <g
       transform="translate(5.0000057,191.4673)"
       id="g1934">
      <path
         d="M 4.2160405,395.78396 L 795.78395,395.78396"
         style="fill:none;fill-rule:evenodd;stroke:#131516;stroke-width:8.43207264"
         id="path11" />
      <path
         d="M 4.2160405,635.78396 L 795.78395,635.78396"
         style="fill:none;fill-rule:evenodd;stroke:#131516;stroke-width:8.43207264"
         id="path13" />
      <path
         d="M 4.2160405,515.78396 L 795.78395,515.78396"
         style="fill:none;fill-rule:evenodd;stroke:#131516;stroke-width:8.43207264"
         id="path15" />
      <path
         d="M 4.2160405,275.78396 L 795.78395,275.78396"
         style="fill:none;fill-rule:evenodd;stroke:#131516;stroke-width:8.43207264"
         id="path17" />
      <path
         d="M 4.2160405,155.78396 L 795.78395,155.78396"
         style="fill:none;fill-rule:evenodd;stroke:#131516;stroke-width:8.43207264"
         id="path19" />
    </g>
  </g>
  <g
     inkscape:groupmode="layer"
     id="layer2"
     inkscape:label="clef">
    <path
       id="path9"
       style="fill:#131516;fill-rule:evenodd;stroke:#131516;stroke-width:0.60229105"
       d="M 253.15412,641.98044 C 240.6871,644.53718 229.13339,651.37787 218.10574,662.2748 C 207.06431,673.37176 201.15385,686.02874 200.18764,700.03186 C 199.58032,708.83382 201.89814,719.04359 206.98199,730.04721 C 212.05202,741.25086 220.33707,749.66139 231.42225,755.45119 C 235.17713,756.51425 236.84387,758.63923 236.65063,761.43985 C 236.58163,762.44008 235.10888,763.34345 231.64465,763.90841 C 213.71382,758.04827 199.35035,747.20836 188.72718,731.80259 C 178.1178,716.19679 173.26131,698.97795 174.18533,679.74601 C 176.20862,659.18294 183.75015,640.4076 196.79611,623.62002 C 210.05642,606.64625 226.36686,595.10886 245.72747,589.00783 L 236.79086,517.03732 C 204.14235,540.5122 177.24023,565.38857 155.85634,592.05266 C 134.48625,618.51673 122.37548,648.03162 119.32349,680.58353 C 118.71694,695.21445 120.7449,709.62515 125.42117,723.6156 C 130.08363,737.80609 137.65014,750.78998 148.09311,762.96737 C 169.19336,787.1359 197.85701,800.97248 233.66922,804.64946 C 245.9568,804.6933 259.14313,803.39219 273.42874,800.75994 L 253.15412,641.98044 z M 267.73035,640.97623 L 288.39876,796.96892 C 320.13628,786.69698 337.44053,760.75637 340.28393,719.5472 C 339.43155,705.61961 336.27671,692.94012 330.21782,681.46722 C 324.37326,669.80814 316.15723,660.39737 305.36919,653.22112 C 294.58117,646.04485 282.16857,641.97245 267.73035,640.97623 z M 240.97652,430.09347 C 247.87009,426.54918 255.97336,420.07342 264.87148,410.83853 C 273.75577,401.80367 282.56376,390.95461 291.06731,378.67754 C 299.7852,366.21426 306.91264,353.44025 312.44965,340.35552 C 317.97284,327.47082 321.04827,315.02021 321.84883,303.41763 C 322.1939,298.41652 322.13791,293.38773 321.43893,288.91757 C 321.1337,281.66062 319.31434,275.90719 315.76652,271.84344 C 312.20488,267.97974 307.53017,265.64723 301.51426,265.23213 C 289.4824,264.40196 278.14303,271.05643 267.49615,285.19557 C 259.19312,297.48648 251.92765,312.26093 246.32892,329.16035 C 240.51587,346.24598 236.72192,363.26995 235.12001,380.64614 C 234.75619,400.51973 236.84665,416.94472 240.97652,430.09347 z M 227.54252,440.82436 C 220.7547,407.79451 218.0189,374.44125 219.33512,340.7646 C 221.02637,319.17364 224.6263,299.12134 230.13492,280.60771 C 235.443,262.08026 242.37643,246.27791 250.96279,232.80059 C 259.34864,219.30942 268.703,209.30203 278.8254,202.76456 C 287.8899,196.95811 294.34101,193.98628 297.75004,194.2215 C 300.35693,194.40137 302.49376,195.5538 304.37484,197.49257 C 306.25592,199.43134 308.65578,202.61187 311.58822,206.83414 C 333.11869,242.2882 342.33476,283.92746 339.04967,331.53805 C 337.48995,354.14308 332.96368,375.94043 325.42943,397.53023 C 318.10954,418.93382 308.05121,439.14348 295.28207,457.75912 C 282.29861,476.56098 267.48927,492.62389 250.63973,506.13406 L 261.4444,586.07234 C 270.33676,585.68092 276.4079,585.29584 279.81692,585.53105 C 295.05727,586.58262 308.47251,590.72422 320.66425,597.99733 C 332.856,605.27046 343.09115,614.61953 351.15534,626.23078 C 359.23334,637.64199 365.19561,650.51519 369.04215,664.85037 C 372.68816,679.17172 374.28745,693.95485 373.23843,709.15822 C 371.6097,732.76348 363.90253,753.93935 350.13074,772.48581 C 336.35896,791.03227 316.72959,803.94864 291.02831,811.42115 C 291.95622,821.33401 293.78364,835.73089 296.73873,854.22552 C 299.47947,872.90635 301.47983,887.71712 302.73979,898.65786 C 303.99974,909.59862 304.08411,920.05632 303.38016,930.25857 C 302.28974,946.06218 297.51346,959.80229 289.0375,971.67927 C 280.36103,983.5424 269.27089,992.42505 255.56657,998.31336 C 242.06276,1004.2155 227.3899,1006.62 211.74849,1005.5407 C 189.69011,1004.0188 170.86705,996.48913 155.26549,983.15182 C 139.67775,969.61453 132.00003,952.402 132.66101,931.14185 C 133.91134,921.78137 136.7245,913.13158 141.31484,905.00644 C 145.90518,896.8813 151.7888,890.45337 159.16626,885.7365 C 166.35698,880.80571 174.77199,878.57239 184.23834,878.6226 C 192.05904,879.16223 199.32685,881.87464 206.05556,886.55989 C 212.56994,891.43129 217.78453,897.61996 221.48497,905.31218 C 224.98487,912.99057 226.62479,921.34461 226.01747,930.14655 C 225.2031,941.94918 220.50235,951.67462 211.91519,959.32299 C 203.32805,966.97136 192.81111,970.46672 180.57874,969.62261 L 175.96653,969.3044 C 182.95906,981.84671 195.36513,988.93363 213.21238,990.16507 C 222.23626,990.78767 231.59871,989.42374 241.07158,986.45942 C 250.75877,983.30886 258.92455,978.84733 265.98375,972.90252 C 273.04297,966.95762 277.92394,960.46055 280.22561,953.38354 C 284.20056,945.41695 286.59157,934.1251 287.57157,919.92194 C 288.23411,910.31982 287.89399,900.64853 286.75175,890.92184 C 285.59571,881.39523 283.65786,868.59871 280.9244,852.73232 C 278.17714,837.06602 276.19788,824.86961 275.15956,816.55712 C 262.92065,818.7276 250.37733,819.47011 237.34282,818.57075 C 215.48498,817.06258 195.13396,811.23643 176.30361,800.8923 C 157.47325,790.54817 141.28391,776.96931 127.54886,759.94186 C 114.01434,742.92824 103.82635,724.13556 97.012476,703.16372 C 90.385334,682.40576 87.637294,660.91049 88.955072,638.89176 C 91.165089,618.54256 96.327852,599.20109 104.81683,581.29511 C 113.3196,563.18906 123.75867,546.22163 136.32076,530.60666 C 148.88285,514.99169 161.74938,500.8047 174.90655,488.24575 C 188.25045,475.90066 205.66669,460.01763 227.54252,440.82436 z" />
  </g>
  <g
     inkscape:groupmode="layer"
     id="layer3"
     inkscape:label="label">
    <path
       sodipodi:type="arc"
       style="fill:#ffffff;fill-opacity:1;stroke:none;stroke-width:0.5;stroke-miterlimit:4;stroke-dasharray:none;stroke-dashoffset:0;stroke-opacity:1;display:inline"
       id="path3276"
       sodipodi:cx="656.68701"
       sodipodi:cy="471.37259"
       sodipodi:rx="108.83295"
       sodipodi:ry="108.83295"
       d="M 765.51996,471.37259 A 108.83295,108.83295 0 1 1 547.85406,471.37259 A 108.83295,108.83295 0 1 1 765.51996,471.37259 z"
       transform="matrix(0.9079259,0,0,0.8480015,-12.719727,306.79707)" />
    <text
       xml:space="preserve"
       style="font-size:144px;font-style:normal;font-variant:normal;font-weight:normal;font-stretch:normal;text-align:start;line-height:100%;writing-mode:lr-tb;text-anchor:start;fill:#000000;fill-opacity:1;stroke:none;stroke-width:1px;stroke-linecap:butt;stroke-linejoin:miter;stroke-opacity:1;display:inline;font-family:Sans;-inkscape-font-specification:Sans"
       x="488.82928"
       y="758.9397"
       id="text3278"
       sodipodi:linespacing="100%"><tspan
         sodipodi:role="line"
         id="tspan3280"
         x="488.82928"
         y="758.9397">G4</tspan></text>
  </g>
</svg>

<?xml version="1.0" encoding="utf-8"?>
<!-- Generator: Adobe Illustrator 16.0.0, SVG Export Plug-In . SVG Version: 6.00 Build 0)  -->
<!DOCTYPE svg PUBLIC "-//W3C//DTD SVG 1.1//EN" "http://www.w3.org/Graphics/SVG/1.1/DTD/svg11.dtd">
<svg version="1.1"
	 id="svg1894" xmlns:dc="http://purl.org/dc/elements/1.1/" xmlns:cc="http://creativecommons.org/ns#" xmlns:rdf="http://www.w3.org/1999/02/22-rdf-syntax-ns#" xmlns:svg="http://www.w3.org/2000/svg" xmlns:inkscape="http://www.inkscape.org/namespaces/inkscape" xmlns:sodipodi="http://sodipodi.sourceforge.net/DTD/sodipodi-0.dtd" inkscape:output_extension="org.inkscape.output.svg.inkscape" sodipodi:version="0.32" sodipodi:docname="Treble_clef_with_ref.svg" inkscape:version="0.46"
	 xmlns="http://www.w3.org/2000/svg" xmlns:xlink="http://www.w3.org/1999/xlink" x="0px" y="0px" width="471.5px" height="1200px"
	 viewBox="0 0 471.5 1200" enable-background="new 0 0 471.5 1200" xml:space="preserve">
<sodipodi:namedview  inkscape:cy="600" inkscape:cx="598.03434" inkscape:zoom="0.76666666" showgrid="false" pagecolor="#ffffff" bordercolor="#666666" guidetolerance="10.0" objecttolerance="10.0" gridtolerance="10.0" borderopacity="1.0" id="base" inkscape:current-layer="layer3" inkscape:window-y="78" inkscape:window-x="212" inkscape:pageopacity="0.0" inkscape:pageshadow="2" inkscape:window-height="890" inkscape:window-width="1371">
	</sodipodi:namedview>
<defs>
	
	
		<inkscape:perspective  inkscape:vp_z="810 : 600 : 1" inkscape:vp_y="0 : 1000 : 0" inkscape:vp_x="0 : 600 : 1" sodipodi:type="inkscape:persp3d" id="perspective2603" inkscape:persp3d-origin="405 : 400 : 1">
		</inkscape:perspective>
</defs>
<g id="layer1" inkscape:label="staff" sodipodi:insensitive="true" inkscape:groupmode="layer">
	<g id="g1934" transform="translate(5.0000057,191.4673)">
		<path id="path11" fill="none" stroke="#131516" stroke-width="8.4321" d="M4.216,395.784H457.5"/>
		<path id="path13" fill="none" stroke="#131516" stroke-width="8.4321" d="M4.216,635.784H457.5"/>
		<path id="path15" fill="none" stroke="#131516" stroke-width="8.4321" d="M4.216,515.784H457.5"/>
		<path id="path17" fill="none" stroke="#131516" stroke-width="8.4321" d="M4.216,275.784H457.5"/>
		<path id="path19" fill="none" stroke="#131516" stroke-width="8.4321" d="M4.216,155.784H457.5"/>
	</g>
</g>
<g id="layer2" inkscape:label="clef" inkscape:groupmode="layer">
	<path id="path9" fill="#131516" stroke="#131516" stroke-width="0.6023" d="M253.154,641.98
		c-12.467,2.557-24.021,9.397-35.048,20.294c-11.042,11.098-16.952,23.754-17.918,37.758c-0.607,8.802,1.71,19.012,6.794,30.015
		c5.07,11.204,13.355,19.614,24.44,25.404c3.755,1.063,5.421,3.188,5.228,5.988c-0.069,1.001-1.542,1.904-5.006,2.469
		c-17.931-5.86-32.294-16.7-42.917-32.105c-10.609-15.605-15.466-32.825-14.542-52.057c2.023-20.563,9.564-39.339,22.61-56.126
		c13.261-16.974,29.571-28.511,48.932-34.612l-8.937-71.971c-32.648,23.475-59.551,48.352-80.935,75.016
		c-21.37,26.464-33.481,55.979-36.533,88.531c-0.606,14.631,1.422,29.041,6.098,43.031c4.662,14.19,12.229,27.175,22.672,39.353
		c21.1,24.168,49.764,38.005,85.576,41.682c12.288,0.044,25.474-1.257,39.759-3.89L253.154,641.98z M267.73,640.977l20.668,155.992
		c31.738-10.271,49.042-36.213,51.885-77.422c-0.853-13.928-4.008-26.606-10.066-38.08c-5.845-11.658-14.061-21.069-24.849-28.246
		C294.581,646.045,282.168,641.973,267.73,640.977z M240.977,430.094c6.894-3.545,14.997-10.021,23.895-19.255
		c8.884-9.035,17.692-19.884,26.196-32.161c8.718-12.463,15.846-25.237,21.382-38.322c5.523-12.885,8.599-25.335,9.399-36.938
		c0.346-5.001,0.289-10.03-0.41-14.5c-0.305-7.257-2.124-13.01-5.672-17.074c-3.562-3.864-8.236-6.196-14.252-6.611
		c-12.032-0.83-23.372,5.825-34.019,19.963c-8.303,12.291-15.568,27.065-21.167,43.965c-5.813,17.086-9.607,34.11-11.209,51.486
		C234.756,400.52,236.847,416.945,240.977,430.094z M227.542,440.824c-6.788-33.03-9.523-66.383-8.208-100.06
		c1.691-21.591,5.292-41.644,10.8-60.157c5.308-18.527,12.242-34.33,20.828-47.807c8.386-13.491,17.74-23.499,27.862-30.036
		c9.064-5.807,15.516-8.778,18.925-8.543c2.607,0.18,4.744,1.332,6.625,3.271c1.881,1.938,4.281,5.119,7.213,9.341
		c21.531,35.454,30.747,77.094,27.462,124.704c-1.56,22.605-6.086,44.402-13.62,65.992c-7.32,21.403-17.379,41.613-30.147,60.229
		c-12.983,18.802-27.793,34.865-44.643,48.375l10.805,79.938c8.893-0.392,14.963-0.776,18.373-0.541
		c15.24,1.052,28.656,5.193,40.847,12.466c12.192,7.273,22.427,16.622,30.491,28.233c8.078,11.411,14.04,24.285,17.887,38.62
		c3.646,14.321,5.245,29.104,4.196,44.308c-1.629,23.605-9.336,44.781-23.107,63.328c-13.771,18.546-33.401,31.462-59.103,38.935
		c0.928,9.913,2.755,24.31,5.71,42.805c2.741,18.681,4.741,33.491,6.001,44.433c1.26,10.94,1.344,21.398,0.64,31.601
		c-1.09,15.804-5.866,29.544-14.342,41.421c-8.677,11.862-19.767,20.745-33.471,26.634c-13.503,5.902-28.177,8.307-43.818,7.228
		c-22.059-1.522-40.881-9.052-56.483-22.39c-15.588-13.537-23.266-30.749-22.604-52.01c1.25-9.36,4.063-18.01,8.654-26.135
		c4.59-8.126,10.474-14.554,17.851-19.271c7.191-4.931,15.606-7.164,25.072-7.113c7.821,0.539,15.088,3.252,21.817,7.937
		c6.514,4.872,11.729,11.061,15.429,18.753c3.5,7.678,5.14,16.032,4.533,24.834c-0.814,11.803-5.515,21.528-14.103,29.177
		c-8.587,7.648-19.104,11.144-31.336,10.3l-4.612-0.318c6.993,12.542,19.399,19.629,37.246,20.86
		c9.024,0.623,18.386-0.741,27.859-3.706c9.687-3.15,17.853-7.611,24.912-13.557c7.059-5.944,11.94-12.441,14.242-19.519
		c3.975-7.967,6.366-19.259,7.346-33.462c0.662-9.602,0.322-19.273-0.82-29c-1.156-9.526-3.094-22.323-5.828-38.189
		c-2.747-15.666-4.727-27.863-5.765-36.176c-12.239,2.171-24.782,2.913-37.817,2.014c-21.858-1.508-42.209-7.334-61.039-17.678
		c-18.831-10.345-35.02-23.923-48.755-40.951c-13.535-17.014-23.723-35.806-30.536-56.777c-6.627-20.758-9.375-42.254-8.058-64.272
		c2.21-20.349,7.373-39.69,15.862-57.597c8.503-18.105,18.942-35.073,31.504-50.688c12.562-15.614,25.429-29.802,38.586-42.36
		C188.25,475.9,205.667,460.018,227.542,440.824z"/>
</g>
</svg>
